logos/genride_sw.svg

<svg width="720" height="560" viewBox="0 0 72 56" fill="none" xmlns="http://www.w3.org/2000/svg">
<g id="layout-fav">
<g id="typo00">
<g id="navi-+logo">
<g id="Group">
<g id="GEN">
<path id="Path" d="M12.8705 3.17687C16.3026 3.17687 18.4291 4.63449 19.6228 6.91437H23.6892C22.0104 2.76575 18.4291 0 12.8705 0C5.03628 0 0 5.79312 0 13.6419C0 21.4906 5.03628 27.2837 12.8705 27.2837C17.2726 27.2837 19.7721 25.415 21.0778 23.5462L21.4508 26.7231H24.2488V12.8944H12.4974V16.0712H20.7047C20.7047 19.8087 18.6529 24.1068 12.8705 24.1068C6.71504 24.1068 3.73058 19.0612 3.73058 13.6419C3.73058 8.22249 6.71504 3.17687 12.8705 3.17687Z" fill="#ffffff"/>
<path id="Path_2" d="M27.6298 26.7231H45.9097V23.5462H31.3604V14.7631H45.1635V11.5863H31.3604V3.73751H45.9097V0.560638H27.6298V26.7231Z" fill="#ffffff"/>
<path id="Path_3" d="M66.9736 26.7231H70.8907V0.560638H67.1601V13.0812C67.1601 17.1925 67.1601 18.8744 67.3467 21.3037H67.1974C66.3767 19.8087 64.9591 17.5662 62.1612 13.5297L53.1705 0.560638H49.2534V26.7231H52.9839V14.2025C52.9839 10.0913 52.9839 8.40938 52.7974 5.98001H52.9466C53.7674 7.47501 55.185 9.7175 57.9829 13.754L66.9736 26.7231Z" fill="#ffffff"/>
</g>
<g id="RIDE">
<path id="Path_4" d="M17.0421 36.8179C17.0421 38.8137 16.3412 39.7747 14.9393 39.7747C13.7219 39.7747 12.5783 37.631 10.1804 37.631C7.85621 37.631 6.08543 39.1833 6.08543 41.4009C6.08543 43.0271 6.82326 44.1359 7.67176 45.1708C8.3358 45.9469 8.55715 46.4644 8.55715 46.9448C8.55715 47.4623 8.3358 47.8688 7.74554 48.4602C6.45434 49.9016 6.01165 50.8256 6.01165 51.9714C6.01165 54.5955 7.8931 56 9.77456 56C12.0987 56 13.3899 54.8542 14.5704 52.1192C15.2345 50.6408 15.4558 50.2712 16.0092 50.2712C16.3412 50.2712 16.6732 50.5299 16.6732 51.38C16.6732 52.5627 16.3781 54.0041 16.0092 55.4456H19.5507C19.809 54.2629 20.0303 52.8953 20.0303 51.5648C20.0303 48.5341 18.8129 46.8709 16.4888 46.797C14.2015 46.7231 13.353 48.0536 12.0987 50.5669C11.3609 52.0453 10.9182 52.7845 10.1804 52.7845C9.66389 52.7845 9.29497 52.4518 9.29497 51.9344C9.29497 51.5648 9.44254 51.2691 9.66389 50.9734C11.3609 49.2363 11.7667 47.8688 11.7667 46.834C11.7667 45.4665 11.2871 44.4685 10.291 43.3598C9.95902 42.9902 9.47943 42.5466 9.47943 41.9183C9.47943 41.4378 9.88523 41.0313 10.5124 41.0313C12.0618 41.0313 12.2832 43.138 15.0131 43.175C18.444 43.175 20.6206 40.6247 20.6206 36.7809C20.6206 32.161 17.1897 29.5738 12.0249 29.5738H0.404175V55.4456H4.0933V32.7154H12.0249C15.1238 32.7154 17.0421 34.1938 17.0421 36.8179Z" fill="#ffffff"/>
<path id="Path_5" d="M22.4618 55.4456H26.1509C26.5198 54.2629 26.6674 53.0432 26.6674 51.8605C26.6674 49.1255 25.2286 47.9058 25.2286 45.5773C25.2286 42.9162 26.8149 42.251 26.8149 37.4832V29.5738H23.1258V37.4832C23.1258 42.251 21.5395 42.9162 21.5395 45.5773C21.5395 47.9058 23.0151 49.1255 23.0151 51.8605C23.0151 53.0432 22.8307 54.2629 22.4618 55.4456Z" fill="#ffffff"/>
<path id="Shape" d="M30.4638 55.1499V55.4456H39.3177C47.2493 55.4456 51.8607 50.6408 51.8607 42.5097C51.8607 34.4155 47.2493 29.5738 38.9488 29.5738H30.058V33.2698C30.058 37.8158 32.2346 39.5159 36.846 41.0683C39.2808 41.8814 40.0186 42.7314 40.0186 44.2468C40.0186 45.2077 39.2808 45.91 38.2479 45.91C36.2188 45.91 35.8499 42.5836 32.1239 42.5836C29.6153 42.5836 27.9552 44.025 27.9552 46.5752C27.9552 49.532 30.5376 51.4909 30.4638 55.1499ZM31.2754 46.6861C31.2754 46.1317 31.755 45.7991 32.1608 45.7991C32.7142 45.7991 33.1569 46.0578 34.1898 47.2036C35.2597 48.4602 36.6615 49.1994 38.3216 49.1994C41.273 49.1994 43.5602 46.8709 43.5602 44.2837C43.5602 41.1791 41.8632 39.1833 38.2479 37.9267C33.9685 36.4483 33.7102 35.5613 33.7102 33.5654V32.7154H38.5799C45.0359 32.7154 48.1716 36.4113 48.1716 42.5097C48.1716 48.608 45.0359 52.304 38.9488 52.304H33.5258C32.8986 49.1255 31.2754 48.2384 31.2754 46.6861Z" fill="#ffffff"/>
<path id="Path_6" d="M72 56V52.341C70.6719 51.0843 68.6429 50.419 66.577 50.419C62.3345 50.419 61.3753 52.4518 58.8298 52.4518C57.3542 52.4518 56.395 51.6757 56.395 50.2343C56.395 48.3123 57.9813 47.4253 62.4083 47.8688C67.8682 48.4232 70.2292 45.6513 70.2292 42.0662C70.2292 39.479 68.3847 36.8918 64.6955 36.8918C62.5559 36.8918 61.1171 37.8158 59.457 37.8158C57.7231 37.8158 56.6164 37.2244 56.6164 33.6024V32.7154H72V29.5738H53.0379V33.6024C53.0379 39.2942 55.5834 41.3639 58.8667 41.3639C61.1909 41.3639 62.519 40.366 64.5111 40.366C65.6916 40.366 66.6139 41.0683 66.6139 42.2879C66.6139 43.5445 66.0974 44.8751 62.4821 44.5055C57.3911 43.9881 52.7797 45.0229 52.7797 50.419C52.7797 53.0432 54.698 56 58.3871 56C62.2976 56 62.8879 53.7824 66.577 53.7824C68.606 53.7824 70.4506 54.4477 72 56Z" fill="#ffffff"/>
</g>
</g>
</g>
</g>
</g>
</svg>

<svg width="300" height="233" viewBox="0 0 72 56" fill="none" xmlns="http://www.w3.org/2000/svg"><path d="M12.87 3.177c3.433 0 5.56 1.457 6.753 3.737h4.066C22.01 2.766 18.43 0 12.871 0 5.036 0 0 5.793 0 13.642s5.036 13.642 12.87 13.642c4.403 0 6.902-1.869 8.208-3.738l.373 3.177h2.798V12.894H12.497v3.177h8.208c0 3.738-2.052 8.036-7.834 8.036-6.156 0-9.14-5.046-9.14-10.465 0-5.42 2.984-10.465 9.14-10.465M27.63 26.723h18.28v-3.177H31.36v-8.783h13.804v-3.177H31.36V3.738h14.55V.56H27.63zm39.344 0h3.917V.561h-3.73v12.52c0 4.111 0 5.793.186 8.223h-.15c-.82-1.495-2.238-3.738-5.036-7.774L53.171.56h-3.918v26.163h3.73v-12.52c0-4.112 0-5.794-.186-8.223h.15c.82 1.495 2.238 3.737 5.036 7.774zM17.042 36.818c0 1.996-.7 2.957-2.103 2.957-1.217 0-2.36-2.144-4.759-2.144-2.324 0-4.095 1.552-4.095 3.77 0 1.626.738 2.735 1.587 3.77.664.776.885 1.293.885 1.774 0 .517-.221.924-.811 1.515-1.292 1.442-1.734 2.366-1.734 3.511C6.012 54.596 7.893 56 9.775 56c2.324 0 3.615-1.146 4.795-3.88.665-1.48.886-1.849 1.44-1.849.331 0 .663.259.663 1.109 0 1.183-.295 2.624-.664 4.066h3.542c.258-1.183.48-2.55.48-3.881 0-3.03-1.218-4.694-3.542-4.768-2.288-.074-3.136 1.257-4.39 3.77-.738 1.478-1.18 2.218-1.919 2.218-.516 0-.885-.333-.885-.85 0-.37.148-.666.369-.962 1.697-1.737 2.103-3.104 2.103-4.139 0-1.367-.48-2.366-1.476-3.474-.332-.37-.812-.813-.812-1.442 0-.48.406-.887 1.033-.887 1.55 0 1.771 2.107 4.501 2.144 3.431 0 5.608-2.55 5.608-6.394 0-4.62-3.431-7.207-8.596-7.207H.405v25.872h3.688v-22.73h7.932c3.099 0 5.017 1.478 5.017 4.102m5.42 18.628h3.689c.369-1.183.516-2.403.516-3.585 0-2.735-1.438-3.955-1.438-6.284 0-2.66 1.586-3.326 1.586-8.094v-7.91h-3.69v7.91c0 4.768-1.585 5.433-1.585 8.094 0 2.329 1.475 3.549 1.475 6.284 0 1.182-.184 2.402-.553 3.585m8.002-.296v.296h8.854c7.931 0 12.543-4.805 12.543-12.936 0-8.094-4.612-12.936-12.912-12.936h-8.891v3.696c0 4.546 2.177 6.246 6.788 7.798 2.435.813 3.173 1.663 3.173 3.179 0 .96-.738 1.663-1.771 1.663-2.03 0-2.398-3.326-6.124-3.326-2.509 0-4.169 1.441-4.169 3.991 0 2.957 2.583 4.916 2.509 8.575m.811-8.464c0-.554.48-.887.886-.887.553 0 .996.259 2.029 1.405 1.07 1.256 2.471 1.995 4.132 1.995 2.951 0 5.238-2.328 5.238-4.915 0-3.105-1.697-5.1-5.312-6.357-4.28-1.479-4.538-2.366-4.538-4.362v-.85h4.87c6.456 0 9.592 3.696 9.592 9.795 0 6.098-3.136 9.794-9.223 9.794h-5.423c-.627-3.178-2.25-4.066-2.25-5.618M72 56v-3.659c-1.328-1.257-3.357-1.922-5.423-1.922-4.242 0-5.202 2.033-7.747 2.033-1.476 0-2.435-.776-2.435-2.218 0-1.922 1.586-2.809 6.013-2.365 5.46.554 7.821-2.218 7.821-5.803 0-2.587-1.844-5.174-5.534-5.174-2.14 0-3.578.924-5.238.924-1.734 0-2.84-.592-2.84-4.214v-.887H72v-3.141H53.038v4.028c0 5.692 2.545 7.762 5.829 7.762 2.324 0 3.652-.998 5.644-.998 1.18 0 2.103.702 2.103 1.922 0 1.257-.517 2.587-4.132 2.218-5.09-.518-9.702.517-9.702 5.913 0 2.624 1.918 5.581 5.607 5.581 3.91 0 4.5-2.218 8.19-2.218 2.029 0 3.874.666 5.423 2.218" fill="#fff"/></svg>
